X: 37
T: Tater Patch [2]
B: canberra pickers and fiddlers
B: tunes
M:C|
L:1/8
R: reel
Q: 1/4=100
K:Amixolydian
V:1 
e2-|e2 ee g2ff|e2 ee aeff|e2 ae agag|e2 ae agag|
e2ee gfgf|e2 ee g2gf| eee2 cAB^G|A3A A2:|
|:AA|BAGG E2 GG|BAGA E2e2-|e2ec BA^G2|A3A A2:|
% abcbook-tune_id 63da5934339ac3189813789a
% abcbook-tune_composer_id 
% abcbook-link-0 https://www.youtube.com/watch?v=Yh6AAQ3y5C4
% abcbook-link-title-0 Tater Patch (Live)
% abcbook-boost 9
% abcbook-difficulty 0
% abcbook-tags canberra pickers and fiddlers,old time tunes,© free
% abcbook-tablature 
% abcbook-transpose 
% abcbook-tuning AEAE
% abcbook-lastupdated 1738710239273
% abcbook-src-url https://tunebook.net/scrape/tunes.abc
% abcbook-soundfonts 
% abcbook-repeats 1
%%gchordfont "itim-music,Itim" 20

